!!!!SEGMENT: pl-sa--290-a-vii-50--005_lechleitner-ferdinand-simon--missa-s-luciae-benedictus.krn
!!!cenid: 17xx:434
!!!COM: Lechleitner, Ferdinand Simon
!!!COM-rismid: pe30001903
!!!CDT: ~1700-~1800
!!!CNT:
!!!OPR: Missa S. Luciae
!!!OTL: Benedictus
!!!OMV: 005
!!!PDT: 1738
!!!AGN: Sacred; Mass
!!!SMS-siglum: PL-SA
!!!SMS-shelfmark: 290/A VII 50
!!!SMS-shelfwork: 001-005 M
!!!NIFC-rismid: 1001070169
!!!system-decoration: [(s1,s2)][(s3,s4,s5,s6)][(s7,s8)]s9
**kern	**fba	**kern	**kern	**kern	**kern	**kern	**text	**kern	**kern	**kern
*part9	*part9	*part8	*part7	*part6	*part5	*part4	*part4	*part3	*part2	*part1
*staff9	*staff9	*staff8	*staff7	*staff6	*staff5	*staff4	*staff4	*staff3	*staff2	*staff1
*Iorgan	*	*Ivioln	*Ivioln	*Iempty	*Itenor	*Ialto	*	*Ivox	*Iempty	*Iempty
*I"Baſso pro Organo	*	*I"Violino Secundo	*I"Violino Primo	*I"Baſso	*I"Tenore	*I"Alto	*	*I"Canto	*I"Clarino Secundo ex C	*I"Clarino Primo ex C
*I'B.c.	*	*I'V-no II	*I'V-no I	*I'B.	*I'T.	*I'A.	*	*I'C.	*I'Cl. II	*I'Cl. I
*clefF4	*	*clefG2	*clefG2	*clefF4	*clefC4	*clefC3	*	*clefC1	*clefG2	*clefG2
*Trd0c0	*	*	*	*	*	*	*	*	*	*
*k[]	*	*k[]	*k[]	*k[]	*k[]	*k[]	*	*k[]	*k[]	*k[]
*e:	*	*e:	*e:	*e:	*e:	*e:	*	*e:	*e:	*e:
*M3/4	*	*M3/4	*M3/4	*M3/4	*M3/4	*M3/4	*	*M3/4	*M3/4	*M3/4
=1	=1	=1	=1	=1	=1	=1	=1	=1	=1	=1
*2\right	*	*	*	*	*	*2\right	*	*	*	*
!	!	!	!	!LO:TX:a:Bi:t=Benedict(us) Tacet	!LO:TX:a:Bi:t=Benedict(us) Tacet	!	!	!LO:TX:a:Bi:t=Benedict(us) Tacet	!LO:TX:a:Bi:t=Benedictus Tacet	!LO:TX:a:Bi:t=Benedictus Tacet
!LO:TX:a:Bi:t=Solo	!	!LO:TX:b:Bi:t=Benedictus ſolo:dur=7q:ext=s:problem:text with extention lines:problem	!LO:TX:a:Bi:t=Solo:rj	!	!	!LO:TX:a:Bi:t=ſolo	!	!	!	!
!LO:TX:b:Bi:t=Benedictus:dur=5qe:ext=s:problem:text with extention lines:problem	!	!LO:TX:a:Bi:t=adagio	!LO:TX:b:Bi:t=adagio	!	!	!	!	!	!	!
!	!	!	!	!	!	!LO:N:vis=00	!	!	!	!
4E\	.	4gg\	4bb\	2.ryy	2.ryy	0.r	.	2.ryy	2.ryy	2.ryy
4r	.	8gg\L	8bb\L	.	.	.	.	.	.	.
.	.	8ff#X\J	8aa\J	.	.	.	.	.	.	.
4rBB	.	4ee\	4gg\	.	.	.	.	.	.	.
=2	=2	=2	=2	=2	=2	=2	=2	=2	=2	=2
!	!	!	!LO:TX:b:Bi:t=Benedict(us)	!	!	!	!	!	!	!
4BB/	#	4dd#X\	4ff#X\	2.ryy	2.ryy	.	.	2.ryy	2.ryy	2.ryy
4D#X/	5	4dd#\	4b/	.	.	.	.	.	.	.
4BB/	.	4dd#\	4ff#X\	.	.	.	.	.	.	.
=3	=3	=3	=3	=3	=3	=3	=3	=3	=3	=3
4E\	.	4ee\	4gg\	2.ryy	2.ryy	.	.	2.ryy	2.ryy	2.ryy
4G\	6	4ee\	4gg\	.	.	.	.	.	.	.
4E\	.	4gg\	4bb\	.	.	.	.	.	.	.
=4	=4	=4	=4	=4	=4	=4	=4	=4	=4	=4
4E\	n	(>8gg\L	(>8bb\L	2.ryy	2.ryy	.	.	2.ryy	2.ryy	2.ryy
.	.	8ee\)	8gg\)	.	.	.	.	.	.	.
4r	.	(>8ee\	(>8gg\	.	.	.	.	.	.	.
.	.	8gg\)	8bb\)	.	.	.	.	.	.	.
4rBB	.	(>8gg\	(>8ee\	.	.	.	.	.	.	.
.	.	8gg\J)	8bb\J)	.	.	.	.	.	.	.
=5	=5	=5	=5	=5	=5	=5	=5	=5	=5	=5
!	!	!	!	!	!	!LO:N:vis=00	!	!	!	!
4A\	.	(>8aa\L	(>8ccc\L	2.ryy	2.ryy	0.r	.	2.ryy	2.ryy	2.ryy
.	.	8cc\)	8aa\)	.	.	.	.	.	.	.
4rA	.	(>8cc\	(>8aa\	.	.	.	.	.	.	.
.	.	8aa\)	8ccc\)	.	.	.	.	.	.	.
4rF	.	(>8ee\	(>8ee\	.	.	.	.	.	.	.
.	.	8aa\J)	8ccc\J)	.	.	.	.	.	.	.
=6	=6	=6	=6	=6	=6	=6	=6	=6	=6	=6
4E\	.	(>8gg\L	(>8bb\L	2.ryy	2.ryy	.	.	2.ryy	2.ryy	2.ryy
.	.	8bb\)	8gg\)	.	.	.	.	.	.	.
4r	.	(>8bb\	(>8gg\	.	.	.	.	.	.	.
.	.	8gg\)	8bb\)	.	.	.	.	.	.	.
4rBB	.	(>8gg\	(>8ee\	.	.	.	.	.	.	.
.	.	8gg\J)	8bb\J)	.	.	.	.	.	.	.
!	!	!LO:LB:g=original	!LO:LB:g=original	!	!	!	!	!	!	!
=7	=7	=7-	=7	=7	=7	=7	=7	=7	=7	=7
4F#X\	.	4ff#X\	4aa\	2.ryy	2.ryy	.	.	2.ryy	2.ryy	2.ryy
4rF	.	8ff#\L	(>8aa\L	.	.	.	.	.	.	.
.	.	8ee\	8gg\)	.	.	.	.	.	.	.
!LO:TX:a:t=P:w źródle przekeślona pauza 4, porpawiona przez skryptora na nutę 4BB:problem	!	!	!	!	!	!	!	!	!	!
4BB\	7 #	8ff#\	(>8aa\	.	.	.	.	.	.	.
.	.	8gg\J	8bb\J)	.	.	.	.	.	.	.
=8	=8	=8	=8	=8	=8	=8	=8	=8	=8	=8
4E\	.	4ee\	4gg\	2.ryy	2.ryy	.	.	2.ryy	2.ryy	2.ryy
4r	.	(>8ee\L	(>8gg\L	.	.	.	.	.	.	.
.	.	8dd#X\)	8ff#X\)	.	.	.	.	.	.	.
4rBB	.	(>8ee\	(>8gg\	.	.	.	.	.	.	.
.	.	8dd#X\J)	8ff#\J)	.	.	.	.	.	.	.
=9	=9	=9	=9	=9	=9	=9	=9	=9	=9	=9
!	!	!	!	!	!	!LO:N:vis=0	!	!	!	!
4E\	.	8ee\L	(>8gg\L	2.ryy	2.ryy	1.r	.	2.ryy	2.ryy	2.ryy
.	.	8ff#X\	8aa\)	.	.	.	.	.	.	.
4r	.	8gg\	(>8bb\	.	.	.	.	.	.	.
.	.	8ff#X\	8aa\)	.	.	.	.	.	.	.
4rBB	.	8ee\	(>8gg\	.	.	.	.	.	.	.
.	.	8gg\J	8bb\J)	.	.	.	.	.	.	.
=10	=10	=10	=10	=10	=10	=10	=10	=10	=10	=10
4A\	6 5	8ff#X\L	8aa\L	2.ryy	2.ryy	.	.	2.ryy	2.ryy	2.ryy
.	.	8ee\J	8gg\J	.	.	.	.	.	.	.
4B\	# x	4.ee\	4.ff#X\	.	.	.	.	.	.	.
4BB/	.	.	.	.	.	.	.	.	.	.
.	.	8dd#X\	8ff#\	.	.	.	.	.	.	.
=11	=11	=11	=11	=11	=11	=11	=11	=11	=11	=11
4E\	.	4ee\	4gg\	2.ryy	2.ryy	2e\	Be-	2.ryy	2.ryy	2.ryy
4G\	6	4rdd	4rff	.	.	.	.	.	.	.
4D#X\	6	4r	4rdd	.	.	8b\L	-ne-	.	.	.
.	.	.	.	.	.	8a\J	.	.	.	.
=12	=12	=12	=12	=12	=12	=12	=12	=12	=12	=12
!	!	!LO:N:vis=0	!LO:N:vis=0	!	!	!	!	!	!	!
2E\	.	1.r	1.r	2.ryy	2.ryy	4g\	-di-	2.ryy	2.ryy	2.ryy
.	.	.	.	.	.	(>8g\L	-ctus	.	.	.
!	!	!	!	!	!	!LO:SIC:s=8f#:v	!	!	!	!
.	.	.	.	.	.	8f\J)	.	.	.	.
4A\	6 5	.	.	.	.	4e\	qui	.	.	.
=13	=13	=13	=13	=13	=13	=13	=13	=13	=13	=13
2B\	#	.	.	2.ryy	2.ryy	4d#X\	ve-	2.ryy	2.ryy	2.ryy
.	.	.	.	.	.	4B,/	-nit	.	.	.
4D#X/	6	.	.	.	.	4b\	qui	.	.	.
.	5	.	.	.	.	.	.	.	.	.
!LO:LB:g=original	!	!	!	!	!	!	!	!	!	!
=14	=14	=14	=14	=14	=14	=14	=14	=14	=14	=14
4E\	.	4gg\	4bb\	2.ryy	2.ryy	4g\	ve-	2.ryy	2.ryy	2.ryy
4r	.	8gg\L	8bb\L	.	.	4e\	-nit	.	.	.
.	.	8ff#X\J	8aa\J	.	.	.	.	.	.	.
4rBB	.	4ee\	4gg\	.	.	4r	.	.	.	.
=15	=15	=15	=15	=15	=15	=15	=15	=15	=15	=15
!	!	!	!	!	!	!LO:N:vis=00	!	!	!	!
4BB/	#	4dd#X\	4ff#X\	2.ryy	2.ryy	0.r	.	2.ryy	2.ryy	2.ryy
4D#X/	6	4dd#\	4b/	.	.	.	.	.	.	.
4BB/	.	4dd#\	4ff#X\	.	.	.	.	.	.	.
=16	=16	=16	=16	=16	=16	=16	=16	=16	=16	=16
4E\	.	4ee\	4gg\	2.ryy	2.ryy	.	.	2.ryy	2.ryy	2.ryy
4G\	6	4b/	4gg\	.	.	.	.	.	.	.
4E\	.	4gg\	4bb\	.	.	.	.	.	.	.
=17	=17	=17	=17	=17	=17	=17	=17	=17	=17	=17
4E\	.	(>8gg\L	(>8bb\L	2.ryy	2.ryy	.	.	2.ryy	2.ryy	2.ryy
.	.	8bb\)	8gg\)	.	.	.	.	.	.	.
4r	.	(>8bb\	(>8gg\	.	.	.	.	.	.	.
.	.	8gg\)	8bb\)	.	.	.	.	.	.	.
4rBB	.	(>8gg\	(>8ee\	.	.	.	.	.	.	.
.	.	8gg\J)	8bb\J)	.	.	.	.	.	.	.
!	!	!	!LO:LB:g=original	!	!	!	!	!	!	!
=18	=18	=18	=18	=18	=18	=18	=18	=18	=18	=18
4F#X\	.	(>8ff#X\L	(>8aa\L	2.ryy	2.ryy	.	.	2.ryy	2.ryy	2.ryy
.	.	8ee\)	8gg\)	.	.	.	.	.	.	.
4r	.	(>8ff#\	(>8aa\	.	.	.	.	.	.	.
.	.	8gg\)	8bb\)	.	.	.	.	.	.	.
4BB/	7 #	(>8ff#\	(>8aa\	.	.	.	.	.	.	.
.	.	8gg\J)	8bb\J)	.	.	.	.	.	.	.
!	!	!LO:PB:g=original	!	!	!	!	!	!	!	!
=19	=19	=19	=19	=19	=19	=19	=19	=19	=19	=19
4E\	.	4ee\	4gg\	2.ryy	2.ryy	2.r	.	2.ryy	2.ryy	2.ryy
4B\	.	4.ee\	4.ff#X\	.	.	.	.	.	.	.
!LO:TX:a:t=P:w źrodle przekreślona '3' w cyfrowaniu przez skryptora:problem	!	!	!	!	!	!	!	!	!	!
4BB/	4	.	.	.	.	.	.	.	.	.
.	.	8dd#X\	8ff#\	.	.	.	.	.	.	.
=20	=20	=20	=20	=20	=20	=20	=20	=20	=20	=20
4E\	.	4ee\	4gg\	2.ryy	2.ryy	2e\	Be-	2.ryy	2.ryy	2.ryy
4G\	.	4rdd	4rff	.	.	.	.	.	.	.
4D#X/	6	4r	4rdd	.	.	8b\L	-ne-	.	.	.
.	.	.	.	.	.	8a\J	.	.	.	.
=21	=21	=21	=21	=21	=21	=21	=21	=21	=21	=21
!	!	!LO:N:vis=00	!LO:N:vis=00	!	!	!	!	!	!	!
2E\	.	0.r	0.r	2.ryy	2.ryy	4g\	-dic-	2.ryy	2.ryy	2.ryy
.	.	.	.	.	.	8g\L	-tus	.	.	.
!	!	!	!	!	!	!LO:SIC:s=8f#:v	!	!	!	!
.	.	.	.	.	.	8f\J	.	.	.	.
4A\	6 5	.	.	.	.	16e\LL	qui	.	.	.
.	.	.	.	.	.	16g\JJ	.	.	.	.
.	.	.	.	.	.	16f#Xi\LL	ve-	.	.	.
.	.	.	.	.	.	16e\JJ	.	.	.	.
=22	=22	=22	=22	=22	=22	=22	=22	=22	=22	=22
2B\	# x	.	.	2.ryy	2.ryy	4d#X\	-nit	2.ryy	2.ryy	2.ryy
.	.	.	.	.	.	4B/	.	.	.	.
!	!	!	!	!	!	!LO:LB:g=original	!	!	!	!
4D#X\	6 5	.	.	.	.	8b\	Be-	.	.	.
.	.	.	.	.	.	8a\	-ne-	.	.	.
=23	=23	=23	=23	=23	=23	=23	=23	=23	=23	=23
4E\	.	.	.	2.ryy	2.ryy	4g\	-dic-	2.ryy	2.ryy	2.ryy
4G\	6	.	.	.	.	4e,\	-tus	.	.	.
4E\	.	.	.	.	.	4e\	qui	.	.	.
=24	=24	=24	=24	=24	=24	=24	=24	=24	=24	=24
!	!	!	!	!	!	!LO:SIC:s=8f#:v	!	!	!	!
2D\	4 2	.	.	2.ryy	2.ryy	8f\L	ve-	2.ryy	2.ryy	2.ryy
.	.	.	.	.	.	8e\	.	.	.	.
!	!	!	!	!	!	!LO:SIC:s=8f#:v	!	!	!	!
.	.	.	.	.	.	8f\	.	.	.	.
.	.	.	.	.	.	8g\	.	.	.	.
4D#X\	6 5	.	.	.	.	8a\	.	.	.	.
!	!	!	!	!	!	!LO:SIC:s=8f#:v	!	!	!	!
.	.	.	.	.	.	8f\J	.	.	.	.
=25	=25	=25	=25	=25	=25	=25	=25	=25	=25	=25
!	!	!LO:N:vis=00	!LO:N:vis=00	!	!	!	!	!	!	!
4E\	.	0.r	0.r	2.ryy	2.ryy	8g\L	.	2.ryy	2.ryy	2.ryy
!	!	!	!	!	!	!LO:SIC:s=8f#:v	!	!	!	!
.	.	.	.	.	.	8f\	.	.	.	.
4r	.	.	.	.	.	8g\	.	.	.	.
.	.	.	.	.	.	8a\	.	.	.	.
4rBB	.	.	.	.	.	8b\	.	.	.	.
.	.	.	.	.	.	8g\J	.	.	.	.
=26	=26	=26	=26	=26	=26	=26	=26	=26	=26	=26
4D#X\	6_ 5_	.	.	2.ryy	2.ryy	8a\L	.	2.ryy	2.ryy	2.ryy
.	.	.	.	.	.	8g\	.	.	.	.
!	!	!	!	!	!	!LO:SIC:s=8f#:v	!	!	!	!
4D#\	.	.	.	.	.	8f\	.	.	.	.
.	.	.	.	.	.	8a\	.	.	.	.
4D#\	X X	.	.	.	.	8g\	.	.	.	.
!	!	!	!	!	!	!LO:SIC:s=8f#:v	!	!	!	!
.	.	.	.	.	.	8f\J	.	.	.	.
=27	=27	=27	=27	=27	=27	=27	=27	=27	=27	=27
4E\	.	.	.	2.ryy	2.ryy	4e\	-nit	2.ryy	2.ryy	2.ryy
4G\	6	.	.	.	.	4e,\	.	.	.	.
4D#X/	6	.	.	.	.	4b\	in	.	.	.
!LO:LB:g=original	!	!	!	!	!	!	!	!	!	!
=28	=28	=28	=28	=28	=28	=28	=28	=28	=28	=28
4.E\	.	.	.	2.ryy	2.ryy	4.b\	No-	2.ryy	2.ryy	2.ryy
!LO:SIC:s=8F#:v	!	!	!	!	!	!	!	!	!	!
8F\	6	.	.	.	.	8a\	-mi-	.	.	.
4G\	6	.	.	.	.	4g\	-ne	.	.	.
=29	=29	=29	=29	=29	=29	=29	=29	=29	=29	=29
4A\	6 5	2.r	2.r	2.ryy	2.ryy	4f#X\	Do-	2.ryy	2.ryy	2.ryy
4B\	# x	.	.	.	.	4.f#\	.	.	.	.
4BB/	.	.	.	.	.	.	.	.	.	.
.	.	.	.	.	.	8f#\	-mi-	.	.	.
=30	=30	=30	=30	=30	=30	=30	=30	=30	=30	=30
2E\	.	4rdd	4rff	2.ryy	2.ryy	4e\	-ni	2.ryy	2.ryy	2.ryy
.	.	4gg\	4bb\	.	.	4r	.	.	.	.
4F#X\	.	4ff#X\	4aa\	.	.	4r	.	.	.	.
!	!	!	!	!	!	!LO:LB:g=original	!	!	!	!
=31	=31	=31	=31	=31	=31	=31	=31	=31	=31	=31
!	!	!	!	!	!	!LO:N:vis=00	!	!	!	!
2G\	6 x	4.ee\	4.gg\	2.ryy	2.ryy	0.r	.	2.ryy	2.ryy	2.ryy
.	.	8gg\L	8bb\L	.	.	.	.	.	.	.
4A\	6 5	8ff#X\	8aa\	.	.	.	.	.	.	.
.	.	8ee\J	8gg\J	.	.	.	.	.	.	.
=32	=32	=32	=32	=32	=32	=32	=32	=32	=32	=32
4B\	#	8dd#X\L	(>8ff#X\L	2.ryy	2.ryy	.	.	2.ryy	2.ryy	2.ryy
.	.	8ff#X\	8dd#X\)	.	.	.	.	.	.	.
4rA	.	8ff#\	(>8dd#\	.	.	.	.	.	.	.
.	.	8dd#X\	8ff#X\)	.	.	.	.	.	.	.
4rF	.	8dd#\	(>8b\	.	.	.	.	.	.	.
.	.	8dd#\J	8ff#X\J)	.	.	.	.	.	.	.
=33	=33	=33	=33	=33	=33	=33	=33	=33	=33	=33
!LO:TX:a:t=P:w źródle '#' po prawej stronie nuty 4F#:problem	!	!	!	!	!	!	!	!	!	!
!LO:SIC:s=4F#:v	!	!	!	!	!	!	!	!	!	!
4F#\	#	(>8cc#X\L	(>8ff#X\L	2.ryy	2.ryy	.	.	2.ryy	2.ryy	2.ryy
.	.	8a#X\)	8cc#X\)	.	.	.	.	.	.	.
4r	.	(>8a#\	(>8cc#\	.	.	.	.	.	.	.
.	.	8cc#X\)	8ff#X\)	.	.	.	.	.	.	.
4rF	.	(>8cc#\	(>8a#X\	.	.	.	.	.	.	.
.	.	8a#X\J)	8ff#X\J)	.	.	.	.	.	.	.
=34	=34	=34	=34	=34	=34	=34	=34	=34	=34	=34
!	!	!LO:TX:a:t=P:mixed beam:problem	!	!	!	!	!	!	!	!
4B\	#	8f#X/L	(>8dd#X\L	2.ryy	2.ryy	.	.	2.ryy	2.ryy	2.ryy
.	.	(>8dd#X\	8ff#X\)	.	.	.	.	.	.	.
4rA	.	8dd#\	(>8ff#\	.	.	.	.	.	.	.
.	.	8dd#\	8ff#\)	.	.	.	.	.	.	.
4rF	.	8dd#\	(>8b\	.	.	.	.	.	.	.
.	.	8dd#\J)	8ff#\J)	.	.	.	.	.	.	.
=35	=35	=35	=35	=35	=35	=35	=35	=35	=35	=35
!	!	!	!	!	!	!LO:N:vis=0	!	!	!	!
4E\	.	8ee\L	(>8gg\L	2.ryy	2.ryy	1.r	.	2.ryy	2.ryy	2.ryy
.	.	8gg\	8bb\)J	.	.	.	.	.	.	.
!	!	!	!LO:LB:g=original	!	!	!	!	!	!	!
4r	.	8gg\	(>8bb\L	.	.	.	.	.	.	.
.	.	8bb\	8gg\)	.	.	.	.	.	.	.
4rBB	.	8bb\	(>8gg\	.	.	.	.	.	.	.
.	.	8gg\J	8bb\J)	.	.	.	.	.	.	.
=36	=36	=36	=36	=36	=36	=36	=36	=36	=36	=36
4A\	6 5	8ff#X\L	8aa\L	2.ryy	2.ryy	.	.	2.ryy	2.ryy	2.ryy
.	.	8ee\J	8gg\J	.	.	.	.	.	.	.
!	!	!LO:LB:=original	!	!	!	!	!	!	!	!
4B\	# x	4.ee\	4.ff#X\	.	.	.	.	.	.	.
4BB/	.	.	.	.	.	.	.	.	.	.
.	.	8dd#X\	8ff#\	.	.	.	.	.	.	.
=37	=37	=37	=37	=37	=37	=37	=37	=37	=37	=37
4E\	.	4ee\	4gg\	2.ryy	2.ryy	2b\	Be-	2.ryy	2.ryy	2.ryy
4G\	6	4rdd	4rff	.	.	.	.	.	.	.
4D#X/	6	4r	4rdd	.	.	4b\	-ne-	.	.	.
=38	=38	=38	=38	=38	=38	=38	=38	=38	=38	=38
!	!	!LO:N:vis=00	!LO:N:vis=00	!	!	!	!	!	!	!
4E\	.	0.r	0.r	2.ryy	2.ryy	4b\	-dic-	2.ryy	2.ryy	2.ryy
4G\	6	.	.	.	.	4b,\	-t(us)	.	.	.
4E\	.	.	.	.	.	4b\	qui	.	.	.
=39	=39	=39	=39	=39	=39	=39	=39	=39	=39	=39
4F#X\	.	.	.	2.ryy	2.ryy	8a\L	ve-	2.ryy	2.ryy	2.ryy
.	.	.	.	.	.	8g\J	.	.	.	.
4D#X/	.	.	.	.	.	8a,\	-nit	.	.	.
.	.	.	.	.	.	8a\	qui	.	.	.
4BB/	7 #	.	.	.	.	16b\LL	ve-	.	.	.
.	.	.	.	.	.	16a\	.	.	.	.
.	.	.	.	.	.	16g\	.	.	.	.
.	.	.	.	.	.	16f#Xi\JJ	.	.	.	.
=40	=40	=40	=40	=40	=40	=40	=40	=40	=40	=40
4E\	.	.	.	2.ryy	2.ryy	8.g\L	.	2.ryy	2.ryy	2.ryy
!	!	!	!	!	!	!LO:SIC:s=16f#:v	!	!	!	!
.	.	.	.	.	.	16f\Jk	.	.	.	.
4r	.	.	.	.	.	8e\L	.	.	.	.
.	.	.	.	.	.	8g\J	.	.	.	.
4A\	6 5	.	.	.	.	8f#Xi\L	.	.	.	.
.	.	.	.	.	.	8e\J	.	.	.	.
!LO:LB:g=original	!	!	!	!	!	!	!	!	!	!
=41	=41	=41	=41	=41	=41	=41	=41	=41	=41	=41
4B\	#	.	.	2.ryy	2.ryy	4d#X\	.	2.ryy	2.ryy	2.ryy
4D#X/	.	.	.	.	.	4B/	-nit	.	.	.
4BB/	.	.	.	.	.	4f#Xi,\	in	.	.	.
=42	=42	=42	=42	=42	=42	=42	=42	=42	=42	=42
!	!	!LO:N:vis=0	!LO:N:vis=0	!	!	!	!	!	!	!
!	!	!	!	!	!	!LO:SIC:s=4.f#:v	!	!	!	!
4.BB/	.	1.r	1.r	2.ryy	2.ryy	4.f\	No-	2.ryy	2.ryy	2.ryy
8C#X/	6\	.	.	.	.	8e\	-mi-	.	.	.
4D#X/	6	.	.	.	.	4d#X/	-ne	.	.	.
=43	=43	=43	=43	=43	=43	=43	=43	=43	=43	=43
4E\	6 5	.	.	2.ryy	2.ryy	4c#X/	Do-	2.ryy	2.ryy	2.ryy
4F#X\	# x	.	.	.	.	4.c#/	.	.	.	.
4FF#X/	.	.	.	.	.	.	.	.	.	.
.	.	.	.	.	.	8c#/	-mi-	.	.	.
=44	=44	=44	=44	=44	=44	=44	=44	=44	=44	=44
!	!	!	!LO:SIC:s=4ff#:v	!	!	!	!	!	!	!
4BB/	#	4dd#X\	4ff\	2.ryy	2.ryy	4B/	-ni	2.ryy	2.ryy	2.ryy
!	!	!	!LO:SIC:s=8ff#:v	!	!	!	!	!	!	!
4r	.	8dd#\L	8ff\L	.	.	4r	.	.	.	.
.	.	8cc#X\J	8ee\J	.	.	.	.	.	.	.
4rBB	.	4b/	4dd#X\	.	.	4r	.	.	.	.
!	!	!	!	!	!	!LO:PB:g=original	!	!	!	!
=45	=45	=45	=45	=45	=45	=45	=45	=45	=45	=45
!	!	!	!	!	!	!LO:N:vis=0	!	!	!	!
4F#X\	#	8a#X/L	(>8cc#X\L	2.ryy	2.ryy	1.r	.	2.ryy	2.ryy	2.ryy
.	.	8f#X/	8a#X\)	.	.	.	.	.	.	.
4rF	.	8f#/	(>8a#\	.	.	.	.	.	.	.
.	.	8a#X/	8cc#X\)	.	.	.	.	.	.	.
4r	.	8a#/	(>8f#X\	.	.	.	.	.	.	.
.	.	8a#/J	8cc#\J)	.	.	.	.	.	.	.
=46	=46	=46	=46	=46	=46	=46	=46	=46	=46	=46
4BB/	#	8b\L	(>8dd#X\L	2.ryy	2.ryy	.	.	2.ryy	2.ryy	2.ryy
.	.	8dd#X\	8ff#X\)	.	.	.	.	.	.	.
4r	.	8dd#\	(>8b\	.	.	.	.	.	.	.
.	.	8dd#\	8ff#Xi\)	.	.	.	.	.	.	.
4rBB	.	8b\	(>8dd#\	.	.	.	.	.	.	.
.	.	8dd#\J	8ff#Xi\J)	.	.	.	.	.	.	.
=47	=47	=47	=47	=47	=47	=47	=47	=47	=47	=47
4E\	6 5	8cc#X\L	8ee\L	2.ryy	2.ryy	2.r	.	2.ryy	2.ryy	2.ryy
.	.	8b\J	8dd#X\J	.	.	.	.	.	.	.
!LO:TX:a:t=P:w źródle '#' po prawej stronie nuty 4F#:problem	!	!	!	!	!	!	!	!	!	!
!LO:TX:a:t=P:w źródle niewyraźny zapis; najprawdopodobniej po cyfrze '4' jest cyfra '5':problem	!	!	!	!	!	!	!	!	!	!
4F#X\	7 4	4.b/	4.cc#X\	.	.	.	.	.	.	.
.	x 5	.	.	.	.	.	.	.	.	.
4FF#X/	# x	.	.	.	.	.	.	.	.	.
.	.	8a#X/	8cc#\	.	.	.	.	.	.	.
=48	=48	=48	=48	=48	=48	=48	=48	=48	=48	=48
4BB/	#	4b/	4dd#X\	2.ryy	2.ryy	4r	.	2.ryy	2.ryy	2.ryy
4D#X/	6	4rdd	4r	.	.	4b\	Be-	.	.	.
4BB/	.	4r	4rg	.	.	16b\LL	-ne-	.	.	.
.	.	.	.	.	.	16a\	.	.	.	.
.	.	.	.	.	.	16g\	.	.	.	.
!	!	!	!	!	!	!LO:SIC:s=16f#:v	!	!	!	!
.	.	.	.	.	.	16f\JJ	.	.	.	.
=49	=49	=49	=49	=49	=49	=49	=49	=49	=49	=49
2E\	.	2.r	2.r	2.ryy	2.ryy	4g\	-dic-	2.ryy	2.ryy	2.ryy
.	.	.	.	.	.	(>8e\L	-t(us)	.	.	.
.	.	.	.	.	.	8g\J)	.	.	.	.
4A\	.	.	.	.	.	8f#Xi\L	qui	.	.	.
.	.	.	.	.	.	8e\J	.	.	.	.
=50	=50	=50	=50	=50	=50	=50	=50	=50	=50	=50
4B\	#	4rdd	4rff	2.ryy	2.ryy	4d#X\	ve-	2.ryy	2.ryy	2.ryy
4D#X/	6	4r	4rdd	.	.	4B/	-nit	.	.	.
4BB/	.	4dd#X\	4ff#X\	.	.	4r	.	.	.	.
=51	=51	=51	=51	=51	=51	=51	=51	=51	=51	=51
4E\	.	(>8ee\L	(>8gg\L	2.ryy	2.ryy	2.r	.	2.ryy	2.ryy	2.ryy
.	.	8gg\)	8bb\)	.	.	.	.	.	.	.
4r	.	(>8gg\	(>8bb\	.	.	.	.	.	.	.
.	.	8bb\)	8gg\J)	.	.	.	.	.	.	.
!	!	!	!LO:LB:g=original	!	!	!	!	!	!	!
4rBB	.	(>8gg\	(>8ee\L	.	.	.	.	.	.	.
.	.	8gg\J)	8bb\J)	.	.	.	.	.	.	.
!	!	!LO:LB:g=original	!	!	!	!	!	!	!	!
=52	=52	=52	=52	=52	=52	=52	=52	=52	=52	=52
4AA/	#	4ff#X\	4bb\	2.ryy	2.ryy	4r	.	2.ryy	2.ryy	2.ryy
!	!	!LO:SIC:s=4dd#:v	!	!	!	!	!	!	!	!
2D#X/	6	4dd\	4ff#X\	.	.	4b\	Be-	.	.	.
.	5	4r	4rdd	.	.	4b\	-ne-	.	.	.
=53	=53	=53	=53	=53	=53	=53	=53	=53	=53	=53
!	!	!LO:N:vis=00	!LO:N:vis=00	!	!	!	!	!	!	!
4E\	.	0.r	0.r	2.ryy	2.ryy	4g\	-dic-	2.ryy	2.ryy	2.ryy
4G\	6	.	.	.	.	4e,\	-t(us)	.	.	.
4E\	.	.	.	.	.	4b\	qui	.	.	.
=54	=54	=54	=54	=54	=54	=54	=54	=54	=54	=54
4A\	3	.	.	2.ryy	2.ryy	4cc\	ve-	2.ryy	2.ryy	2.ryy
4G\	3	.	.	.	.	4b,\	-nit	.	.	.
!LO:TX:a:t=P:w źródle '#' po prawej stronie nuty 4F# za kreską taktową:problem	!	!	!	!	!	!	!	!	!	!
!LO:SIC:s=4F#:v	!	!	!	!	!	!	!	!	!	!
4F#\	3	.	.	.	.	4a\	in	.	.	.
!LO:LB:g=original	!	!	!	!	!	!	!	!	!	!
=55	=55	=55	=55	=55	=55	=55	=55	=55	=55	=55
4.G\	3	.	.	2.ryy	2.ryy	4.b\	No-	2.ryy	2.ryy	2.ryy
8F#X\	3	.	.	.	.	8a\	-mi-	.	.	.
4E\	3	.	.	.	.	4g\	-ne	.	.	.
=56	=56	=56	=56	=56	=56	=56	=56	=56	=56	=56
4F#X\	.	.	.	2.ryy	2.ryy	4a\	ve-	2.ryy	2.ryy	2.ryy
4E\	.	.	.	.	.	4g\	-nit	.	.	.
!	!	!	!	!	!	!LO:LB:g=original	!	!	!	!
4D#X\	6	.	.	.	.	4f#X\	in	.	.	.
=57	=57	=57	=57	=57	=57	=57	=57	=57	=57	=57
!	!	!LO:N:vis=00	!LO:N:vis=00	!	!	!	!	!	!	!
4E\	.	0.r	0.r	2.ryy	2.ryy	8e\L	No-	2.ryy	2.ryy	2.ryy
.	.	.	.	.	.	8d#X\	.	.	.	.
4r	.	.	.	.	.	8e\	.	.	.	.
.	.	.	.	.	.	8g\	.	.	.	.
4A\	6 5	.	.	.	.	8f#Xi\	.	.	.	.
.	.	.	.	.	.	8e\J	.	.	.	.
=58	=58	=58	=58	=58	=58	=58	=58	=58	=58	=58
4B\	#_	.	.	2.ryy	2.ryy	4.d#X/	.	2.ryy	2.ryy	2.ryy
4r	.	.	.	.	.	.	.	.	.	.
.	.	.	.	.	.	8c/	-mi-	.	.	.
4BB/	X	.	.	.	.	8B/	-ne	.	.	.
.	.	.	.	.	.	8d#X\	in	.	.	.
=59	=59	=59	=59	=59	=59	=59	=59	=59	=59	=59
4E\	.	.	.	2.ryy	2.ryy	4.e\	No-	2.ryy	2.ryy	2.ryy
4G\	6	.	.	.	.	.	.	.	.	.
.	.	.	.	.	.	8e\	-mi-	.	.	.
4E\	.	.	.	.	.	4b\	-ne	.	.	.
=60	=60	=60	=60	=60	=60	=60	=60	=60	=60	=60
4A\	6 5	.	.	2.ryy	2.ryy	8a\L	Do-	2.ryy	2.ryy	2.ryy
.	.	.	.	.	.	8g\J	.	.	.	.
4B\	# x	.	.	.	.	4.f#X\	.	.	.	.
4BB/	.	.	.	.	.	.	.	.	.	.
.	.	.	.	.	.	8f#\	-mi-	.	.	.
=61	=61	=61	=61	=61	=61	=61	=61	=61	=61	=61
4E\	.	4gg\	4bb\	2.ryy	2.ryy	4e\	-ni	2.ryy	2.ryy	2.ryy
4rF	.	8gg\L	8bb\L	.	.	4r	.	.	.	.
.	.	8ff#X\J	8aa\J	.	.	.	.	.	.	.
4r	.	4ee\	4gg\	.	.	4r	.	.	.	.
!	!	!	!	!	!	!LO:TX:a:t=P:w źródle delikatnie zamazana podwójna kreska taktowa:problem	!	!	!	!
=62	=62	=62	=62	=62	=62	=62||	=62||	=62	=62	=62
!	!	!	!	!	!	!LO:N:vis=00	!	!	!	!
4BB/	.	4dd#X\	4ff#X\	2.ryy	2.ryy	0.r	.	2.ryy	2.ryy	2.ryy
4D#X/	6	4dd#\	4b/	.	.	.	.	.	.	.
4BB/	.	4dd#\	4ff#X\	.	.	.	.	.	.	.
=63	=63	=63	=63	=63	=63	=63	=63	=63	=63	=63
4E\	.	4ee\	4gg\	2.ryy	2.ryy	.	.	2.ryy	2.ryy	2.ryy
4G\	6	4ee\	4gg\	.	.	.	.	.	.	.
4E\	.	4gg\	4bb\	.	.	.	.	.	.	.
=64	=64	=64	=64	=64	=64	=64	=64	=64	=64	=64
4E\	.	(>8gg\L	(>8bb\L	2.ryy	2.ryy	.	.	2.ryy	2.ryy	2.ryy
.	.	8bb\)	8gg\)	.	.	.	.	.	.	.
4r	.	(>8bb\	(>8gg\	.	.	.	.	.	.	.
.	.	8gg\)	8bb\)	.	.	.	.	.	.	.
4rBB	.	(>8gg\	(>8ee\	.	.	.	.	.	.	.
.	.	8gg\J)	8bb\J)	.	.	.	.	.	.	.
=65	=65	=65	=65	=65	=65	=65	=65	=65	=65	=65
4A\	.	(>8aa\L	(>8ccc\L	2.ryy	2.ryy	.	.	2.ryy	2.ryy	2.ryy
.	.	8cc\)J	8aa\)	.	.	.	.	.	.	.
4rA	.	(>8cc\L	(>8aa\	.	.	.	.	.	.	.
.	.	8aa\)J	8ccc\)	.	.	.	.	.	.	.
4rF	.	(>8cc\L	(>8ee\	.	.	.	.	.	.	.
.	.	8aa\J)	8ccc\J)	.	.	.	.	.	.	.
=66	=66	=66	=66	=66	=66	=66	=66	=66	=66	=66
!	!	!	!	!	!	!LO:N:vis=00	!	!	!	!
4E\	.	(>8gg\L	(>8bb\L	2.ryy	2.ryy	0.r	.	2.ryy	2.ryy	2.ryy
.	.	8gg\)	8ee\)	.	.	.	.	.	.	.
4rF	.	(>8ee\	(>8gg\	.	.	.	.	.	.	.
.	.	8gg\)	8bb\)	.	.	.	.	.	.	.
4r	.	(>8gg\	(>8ee\	.	.	.	.	.	.	.
.	.	8gg\J)	8bb\J)	.	.	.	.	.	.	.
!LO:TX:a:B:t=Verte Cito	!	!	!	!	!	!	!	!	!	!
!LO:PB:g=original	!	!	!	!	!	!	!	!	!	!
=67	=67	=67	=67	=67	=67	=67	=67	=67	=67	=67
4F#X\	.	4ff#X\	4aa\	2.ryy	2.ryy	.	.	2.ryy	2.ryy	2.ryy
4r	.	(>8ff#\L	(>8aa\L	.	.	.	.	.	.	.
.	.	8ee\)	8gg\)	.	.	.	.	.	.	.
4BB/	7 #	(>8ff#\	(>8aa\	.	.	.	.	.	.	.
.	.	8gg\J)	8bb\J)	.	.	.	.	.	.	.
!	!	!	!LO:LB:g=original	!	!	!	!	!	!	!
=68	=68	=68	=68	=68	=68	=68	=68	=68	=68	=68
4E\	.	(>8ee\L	(>8gg\L	2.ryy	2.ryy	.	.	2.ryy	2.ryy	2.ryy
.	.	8gg\)	8bb\)	.	.	.	.	.	.	.
4G\	6	(>8gg\	(>8bb\	.	.	.	.	.	.	.
.	.	8bb\)	8gg\)	.	.	.	.	.	.	.
4B\	#	(>8dd#X\	(>8ff#X\	.	.	.	.	.	.	.
.	.	8ff#X\J)	8dd#X\J)	.	.	.	.	.	.	.
!	!	!LO:LB:g=original	!	!	!	!	!	!	!	!
=69	=69	=69	=69	=69	=69	=69	=69	=69	=69	=69
2E\	.	4gg\	4ee\	2.ryy	2.ryy	.	.	2.ryy	2.ryy	2.ryy
.	.	8ee\L	8gg\L	.	.	.	.	.	.	.
.	.	8ff#X\J	8aa\J	.	.	.	.	.	.	.
4rF	.	4gg\	4bb\	.	.	.	.	.	.	.
=70	=70	=70	=70	=70	=70	=70	=70	=70	=70	=70
!	!	!	!	!	!	!LO:N:vis=0	!	!	!	!
4A\	6 5	8ff#X\L	8aa\L	2.ryy	2.ryy	1.r	.	2.ryy	2.ryy	2.ryy
.	.	8ee\J	8gg\J	.	.	.	.	.	.	.
4B\	x 4	4ee\	4.ff#X\	.	.	.	.	.	.	.
.	7 #3	.	.	.	.	.	.	.	.	.
4BB/	.	4dd#X\	.	.	.	.	.	.	.	.
.	.	.	8ff#\	.	.	.	.	.	.	.
=71	=71	=71	=71	=71	=71	=71	=71	=71	=71	=71
4E\	#n	4ee\	4gg\	2.ryy	2.ryy	.	.	2.ryy	2.ryy	2.ryy
4r	.	4rdd	4rff	.	.	.	.	.	.	.
4r	.	4r	4rdd	.	.	.	.	.	.	.
!LO:TX:a:Bi:t=Oſanna ut ſupra	!	!LO:TX:a:Bi:t=Oſanna ut ſupra	!LO:TX:a:Bi:t=Oſanna ut ſupra	!LO:TX:a:Bi:t=Oſanna ut ſupra	!LO:TX:a:Bi:t=Oſanna ut ſupra	!LO:TX:a:Bi:t=Oſanna \nUt \nſupra	!	!LO:TX:a:Bi:t=Oſanna ut ſupra	!LO:TX:a:Bi:t=Oſanna ut ſupra	!LO:TX:a:Bi:t=Oſanna ut ſupra
!	!	!LO:TX:a:t=P:w źródle ozdobna kreska końcowa &colon;||&colon;:problem	!LO:TX:a:t=P:w źródle ozdobna kreska końcowa &colon;||&colon;:problem	!	!	!	!	!	!	!
==	==	==	==	==	==	==	==	==	==	==
*-	*-	*-	*-	*-	*-	*-	*-	*-	*-	*-
!!title: @{OTL};
!!!RDF**kern: > = above
!!!RDF**kern: < = below
!!!RDF**kern: i = editorial accidental
!!!EED: Wojciech Jakubiak-Danek
!!!EST: 2020-11-06
!!!URL-scan: http://bc.bdsandomierz.pl/dlibra/publication/1785/edition/1753/content
!!!ONB-nifc: UWAGA: części Mszy: Kyrie, Gloria, Patrem, Sanctus, Benedictus, Agnus Dei
!!!ENC: Andrzej Gręziak
!!!END: 2020-05-05
